packages/icons/svg/Outline/email.svg

<svg fill="none" height="24" viewBox="0 0 24 24" width="24" xmlns="http://www.w3.org/2000/svg"><path clip-rule="evenodd" d="m19 17.9999h-13.99998c-.551 0-1-.448-1-1v-9.74997l7.39998 5.54997c.178.134.389.2.6.2s.422-.066.6-.2l7.4-5.54997v9.74997c0 .552-.449 1-1 1zm-.667-11.99983-6.333 4.75003-6.33298-4.75003zm.667-2.00007h-14c-1.654 0-3 1.346-3 3v10c0 1.654 1.346 3 3 3h14c1.654 0 3-1.346 3-3v-10c0-1.654-1.346-3-3-3z" fill="#6b7280" fill-rule="evenodd"/></svg>

<svg width="24" height="24" viewBox="0 0 24 24" fill="none" xmlns="http://www.w3.org/2000/svg">
<g id="Icon/Outline/email">
<path id="Mask" fill-rule="evenodd" clip-rule="evenodd" d="M19 18H5C4.449 18 4 17.552 4 17V7.25L11.4 12.8C11.578 12.934 11.789 13 12 13C12.211 13 12.422 12.934 12.6 12.8L20 7.25V17C20 17.552 19.551 18 19 18ZM18.333 6L12 10.75L5.667 6H18.333ZM19 4H5C3.346 4 2 5.346 2 7V17C2 18.654 3.346 20 5 20H19C20.654 20 22 18.654 22 17V7C22 5.346 20.654 4 19 4Z" fill="#000000"/>
</g>
</svg>
